X:1
T:Genoa (Barnby), 887 D
T:Genoa (Barnby), 887 D
T:Joseph Barnby, 1886
T:Public Domain Courtesy of the Cyber Hymnal™
C:Joseph Barnby, 1886
Z:Public Domain
Z:Courtesy of the Cyber Hymnal™
%%score ( 1 2 ) ( 3 4 )
L:1/8
Q:1/4=105
M:4/4
K:D
V:1 treble 
V:2 treble 
V:3 bass 
V:4 bass 
V:1
 [DF]2 [EF]2 [DF]2 [FB]2 | [F=A]2 [EG]2 [EG]2 !fermata![DF]2 | [DF]2 [EF]2 [DF]2 [DB]2 | %3
 [C=A]2 [EG]2 [EG]2 !fermata!F2 | [B,F]2 [CF]2 d3 z d | [Fc]2 [^Ec]2 [Fc]4 | %6
 [Fc]2 [=Ec]2 [Dd]2 [DF]2 | [FB]2 [FA]2 [FA]2 !fermata!G2 | [Ac]2 [Gc]2 [Fd]2 F2 | %9
 [FB]2 [FA]2 [FA]2 !fermata!G2 | [DF]2 [DE]2 [DF]2 [DF]2 | [CF]2 [EF]2 [DF]4 |] %12
V:2
 x8 | x8 | x8 | x6 F2 | x4 D2 F2 x | x8 | x8 | x6 G2 | x6 F2 | x6 G2 | x8 | x8 |] %12
V:3
 [B,,F,]2 [C,^A,]2 [D,B,]2 [B,,D]2 | [E,B,]2 [G,B,]2 B,2 !fermata![B,,B,]2 | %2
 [B,,B,]2 [C,^A,]2 [D,B,]2 [B,,F,]2 | [C,^E,]2 [C,B,]2 [F,B,]2 !fermata![F,^A,]2 | %4
 [F,^G,]2 [F,^A,]2 [B,,B,]2 [B,,G,]2 x | [C,^G,]2 [C,B,]2 [F,^A,]4 | %6
 [=A,,=A,]2 [A,,G,]2 [D,F,]2 [D,A,]2 | [D,D]2 [D,=C]2 [G,C]2 !fermata![G,B,]2 | %8
 [A,F]2 [A,E]2 [B,D]2 [B,,D]2 | [=C,D]2 [C,D]2 [B,,D]2 !fermata![B,D]2 | %10
 A,2 [G,B,]2 [F,B,]2 [F,B,]2 | [F,^A,]2 [F,C]2 [B,,B,]4 |] %12
V:4
 x8 | x4 B,2 x2 | x8 | x8 | x9 | x8 | x8 | x8 | x8 | x8 | A,2 x6 | x8 |] %12

